src/icons/npm.svg

<svg
  data-name="Layer 1"
  viewBox="0 0 990 990"
  xmlns="http://www.w3.org/2000/svg"
>
  <path
    d="M113.26 876.74V113.27h763.47v763.47zm143.59-620.4v476.18h240.61V355.63h140.21v376.96h95.457V256.34z"
    fill="#e53935"
    style="fill: #cb3837"
  />
</svg>

<svg viewBox="0 0 990 990" xmlns="http://www.w3.org/2000/svg">
  <path
    d="M113.26 876.74V113.27H876.73V876.74H113.26ZM256.85 256.34V732.52H497.46V355.63H637.67V732.59H733.127V256.34H256.85Z"
    fill="#CB3837"
  />
</svg>
